!!!!SEGMENT: pl-kk--kk-i-34--001-001_anonim--missa-kyrie.krn
!!!cenid: 16xx:1327
!!!COM: Anonim
!!!COM-rismid: pe30004985
!!!CDT:
!!!CNT:
!!!OTL: Missa – Kyrie
!!!PDT:
!!!AGN: Sacred; Mass
!!!SMS-siglum: PL-Kk
!!!SMS-shelfmark: Kk.I.34
!!!SMS-shelfwork: 001-001 M
!!!SMS-variant: Basso PL-Kk Kk.I.34 s. 0014-0015
!!!SMS-altvar: Basso PL-Kk Kk.I.34 s. 0018-0019
!!!NIFC-rismid: 1001156614
!!!URL-scan: http://repozytorium.nifc.pl/skany/pl-kk-nut--i-34
!!!ONB-nifc: UWAGA: wg RISM obsada A, T (2), B. W zbiorze: 001 (Missa) – 1. Kyrie, 2. Et in terra, 3. Patrem, 4. Sanctus, 5. Agnus Dei; 002 – Rorate caeli, 003 – Rorate caeli
**kern	**text	**kern	**text	**kern	**text	**kern	**text
*part4	*part4	*part3	*part3	*part2	*part2	*part1	*part1
*staff4	*staff4	*staff3	*staff3	*staff2	*staff2	*staff1	*staff1
*I"[Basso]	*	*I"[Tenore 2]	*	*I"[Tenore 1]	*	*I"[Alto]	*
*I'B	*	*I'T 2	*	*I'T 1	*	*I'A	*
*clefF4	*	*clefC4	*	*clefC4	*	*clefC3	*
*k[]	*	*k[]	*	*k[]	*	*k[]	*
*C:	*	*C:	*	*C:	*	*C:	*
*M3/1	*	*M3/1	*	*M3/1	*	*M3/1	*
=1-	=1-	=1-	=1-	=1-	=1-	=1-	=1-
1.C	Ky-	1.c	Ky-	1.e	Ky-	1.g	Ky-
2C/	-ri-	2c\	-ri-	2e\	-ri-	2g\	-ri-
1C	-e	2c\	-e	2e\	-e	1g	-e
!	!	!LO:TX:t=P:problem:kreska pseudotaktowa	!	!	!	!	!
.	.	2c\	e-	2e\	e-	.	.
=2-	=2-	=2-	=2-	=2-	=2-	=2-	=2-
*	*ij	*	*	*	*	*	*ij
1.G	Ky-	1B	-ley-	1d	-ley-	1.g	Ky-
.	.	1B	-ſon	(1d	-ſon	.	.
2G\	-ri-	.	.	.	.	2g\	-ri-
!	!	!LO:TX:t=P:problem:kreska pseudotaktowa	!	!	!	!	!
2G\	-e	1B	e-	1d)	.	2g\	-e
*	*Xij	*	*	*	*	*	*Xij
2G\	e-	.	.	.	.	2g\	e-
=3-	=3-	=3-	=3-	=3-	=3-	=3-	=3-
1.C	-ley-	1.c	-ley-	(1.e	e-	0g	-ley-
2GG/	.	2B\	.	2d\)	-ley-	.	.
!	!	!LO:TX:t=P:problem:kreska pseudotaktowa	!	!	!	!LO:TX:t=P:problem:# above	!
1D	.	1A	.	1d	-ſon	1f#X	.
=4-	=4-	=4-	=4-	=4-	=4-	=4-	=4-
1G	-ſon	1G	-ſon	0d	[[e-	1g	-ſon
2G\	Ky-	2G/	Ky-	.	.	1.g	Ky-
2G\	-ri-	2G/	-ri-	.	.	.	.
1C	-e	1G	-e	2e\	-ley-	.	.
.	.	.	.	2e\	-ſon]]	2g\	-ri-
=5-	=5-	=5-	=5-	=5-	=5-	=5-	=5-
1.F	e-	0A	e-	1.c	Ky-	0fny	-e
2F\	.	.	.	2B\	-ri-	.	.
*	*	*	*	*	*	*	*ij
1A	.	1c	.	1A	-e	2e\	Ky-
.	.	.	.	.	.	2e\	-ri-
=6-	=6-	=6-	=6-	=6-	=6-	=6-	=6-
0E	-ley-	0B	.	0G	.	0e	-e
1F	.	1A	.	1F	e-	1c	e-
=7-	=7-	=7-	=7-	=7-	=7-	=7-	=7-
1C	-ſon	0G	-ley-	0E	-ley-	1.c	-ley-
2C/	Ky-	.	.	.	.	.	.
2C/	-ri-	.	.	.	.	2B/	-ſon
*	*	*	*	*	*	*	*Xij
!	!	!LO:TX:t=P:problem:kreska pseudotaktowa	!	!	!	!	!
1D	-e	1F	.	1D	-ſon	2A/	e-
.	.	.	.	.	.	2B/	.
=8-	=8-	=8-	=8-	=8-	=8-	=8-	=8-
!	!	!LO:TX:t=P:problem:kreska pseudotaktowa	!	!	!	!	!
1AA	e-	0.E	-ſon	1.C	Ky-	0.c	-ley-
1AA	-ley-	.	.	.	.	.	.
.	.	.	.	2D/	-ri-	.	.
2AA/	-ſon	.	.	1.E	-e	.	.
2BB/	.	.	.	.	.	.	.
!LO:LB:g=original	!	!	!	!	!	!	!
=9-	=9-	=9-	=9-	=9-	=9-	=9-	=9-
1.C	Ky-	1E	Ky-	.	.	0c	-ſon
.	.	.	.	2F/	.	.	.
.	.	1E	-ri-	2G/	.	.	.
2BB/	-ri-	.	.	4A\	.	.	.
.	.	.	.	4B\	.	.	.
!	!	!	!	!LO:LB:g=original	!	!	!
1AA	-e	1E	-e	1c	.	2c/	Ky-
.	.	.	.	.	.	2d/	-ri-
!	!	!LO:LB:g=original	!	!	!	!LO:LB:g=original	!
=10-	=10-	=10-	=10-	=10-	=10-	=10-	=10-
*	*ij	*	*	*	*	*	*
1.E	Ky-	0G	e-	0B	e-	1.e	-e
2E\	-ri-	.	.	.	.	2d\	.
1F	-e	1F	.	1A	-ley-	2c\	.
*	*Xij	*	*	*	*	*	*
.	.	.	.	.	.	2d\	.
=11-	=11-	=11-	=11-	=11-	=11-	=11-	=11-
1C	e-	1E	-ley-	0.G	-ſon	2e\	e-
.	.	.	.	.	.	2f\	.
0GG	-ley-	0D	.	.	.	0g	-ley-
=12-	=12-	=12-	=12-	=12-	=12-	=12-	=12-
*	*	*	*	*	*ij	*	*
0.C	-ſon	0C	-ſon	0G	Ky-	0.e	-ſon
*	*	*	*ij	*	*	*	*
.	.	2.E/	Ky-	2.c\	-ri-	.	.
!	!	!LO:TX:t=P:problem:kreska pseudotaktowa	!	!	!	!	!
.	.	4F/	-ri-	4d\	.	.	.
=13-	=13-	=13-	=13-	=13-	=13-	=13-	=13-
*	*	*	*	*	*	*	*ij
1.C	Ky-	1G	-e	0e	-e	1.e	Ky-
*	*	*	*Xij	*	*	*	*
.	.	1g	e-	.	.	.	.
2C/	-ri-	.	.	.	.	2e\	-ri-
1FF	-e	1f	-ley-	1d	e-	2e\-	-e
.	.	.	.	.	.	2f\	e-
=14-	=14-	=14-	=14-	=14-	=14-	=14-	=14-
*	*	*	*	*col	*	*	*
1C	e-	1e	.	1c	-ley-	1g	-ley-
*	*	*	*	*Xcol	*	*	*
0GG	-ley-	0d	.	0d	.	0g	.
=15-	=15-	=15-	=15-	=15-	=15-	=15-	=15-
0.C;<	-ſon	0.c;<	-ſon	0.e;<	-ſon	0.g;<	-ſon
*	*	*	*	*	*Xij	*	*Xij
=16||	=16||	=16||	=16||	=16||	=16||	=16||	=16||
*M3/1	*	*M3/1	*	*M3/1	*	*M3/1	*
!	!	!	!	!LO:TX:a:t=Christe \nTacet	!	!	!
0C	Chry-	1c	Chry-	0.ryy	.	1eny	Chry-
.	.	1c	-ste	.	.	1.e	-ste
1C	-ste	1c	e-	.	.	.	.
.	.	.	.	.	.	2e\	e-
=17-	=17-	=17-	=17-	=17-	=17-	=17-	=17-
*	*ij	*	*	*	*	*	*
1GG	Chry-	0B	-ley-	0.ryy	.	0d	-ley-
1GG	-ste	.	.	.	.	.	.
*	*Xij	*	*	*	*	*	*
1GG	e-	1B	-ſon	.	.	1d	-ſo(n)
=18-	=18-	=18-	=18-	=18-	=18-	=18-	=18-
0C	-ley-	2c\	e-	0.ryy	.	2e\	e-
.	.	2B\	.	.	.	2d\	.
.	.	2A/	.	.	.	2c/	.
.	.	2G/	.	.	.	2B/	.
!	!	!LO:TX:t=P:problem:kreska pseudotaktowa	!	!	!	!	!
1D	.	1F	-ley-	.	.	1A	-ley-
!	!	!	!	!	!	!LO:LB:g=original	!
=19-	=19-	=19-	=19-	=19-	=19-	=19-	=19-
1GG	-ſon	0G	-ſon	0.ryy	.	0G	-ſon
1G	Chry-	.	.	.	.	.	.
!	!	!LO:SIC:v:t=custos A	!	!	!	!	!
1G	-ste	1G	Chry-	.	.	2B/	Ky-
.	.	.	.	.	.	2B/	-rie
!	!	!LO:LB:g=original	!	!	!	!	!
=20-	=20-	=20-	=20-	=20-	=20-	=20-	=20-
0F	e-	2A/	-ste	0.ryy	.	2c/	.
.	.	2G/	.	.	.	2B/	.
.	.	2A/	.	.	.	2c/	.
.	.	2B\	.	.	.	2d\	.
1E	.	2c\	.	.	.	2e\	.
!	!	!LO:TX:t=P:problem:kreska pseudotaktowa	!	!	!	!	!
.	.	2d\	.	.	.	2f\	.
!LO:LB:g=original	!	!	!	!	!	!	!
=21-	=21-	=21-	=21-	=21-	=21-	=21-	=21-
*	*ij	*	*	*	*	*	*
1.G	-ley-	2B\	.	0.ryy	.	2d\	.
.	.	2A/	.	.	.	2c/	.
.	.	2B\	.	.	.	2d\	.
2G\	-ſon	2G/	.	.	.	2B/	.
*	*Xij	*	*	*	*	*	*
1F	e-	2A\	.	.	.	2c/	.
.	.	2B\	.	.	.	2d\	.
=22-	=22-	=22-	=22-	=22-	=22-	=22-	=22-
1E	-ley-	0c	ley-	0.ryy	.	2e\	.
.	.	.	.	.	.	4f\	.
.	.	.	.	.	.	4g\	.
0D	-ſon	.	.	.	.	2f\	.
.	.	.	.	.	.	2e\	.
!	!	!LO:TX:t=P:problem:kreska pseudotaktowa	!	!	!	!	!
.	.	1B	-ſon	.	.	2f\	.
.	.	.	.	.	.	2d\	.
=23-	=23-	=23-	=23-	=23-	=23-	=23-	=23-
*	*ij	*	*	*	*	*	*
0.C	Chry-	1.c	e-	0.ryy	.	1.e	.
.	.	.	.	.	.	.	.
.	.	2G/	.	.	.	2B/	Ky-
.	.	2A/	.	.	.	2c/	-rie
.	.	2B\	.	.	.	2d\	.
=24-	=24-	=24-	=24-	=24-	=24-	=24-	=24-
1C	-ste	2c\	.	0.ryy	.	2e\	.
.	.	2B\	.	.	.	2d\	.
1C	e-	2A/	.	.	.	2c/	.
.	.	2B\	.	.	.	2d\	.
1C	-ley-	2c\	.	.	.	2e\	.
!	!	!LO:TX:t=P:problem:kreska pseudotaktowa	!	!	!	!	!
.	.	2d\	.	.	.	2f\	.
!	!	!	!	!	!	!LO:LB:g=original	!
=25-	=25-	=25-	=25-	=25-	=25-	=25-	=25-
0C	-ſon	2e\	.	0.ryy	.	1.g	.
.	.	2d\	.	.	.	.	.
.	.	2e\	.	.	.	.	.
.	.	2f\	.	.	.	2g\	.
1D	Chry-	1d	.	.	.	1f	.
=26-	=26-	=26-	=26-	=26-	=26-	=26-	=26-
1E	-ste	1c	-ley-	0.ryy	.	1e	e-
*	*	*lig	*	*	*	*	*
0G	e-	1c	-ſon	.	.	0d	-ley-
.	.	1B	.	.	.	.	.
*	*	*Xlig	*	*	*	*	*
=27-	=27-	=27-	=27-	=27-	=27-	=27-	=27-
0C	-ley-	1.c	Chry-	0.ryy	.	1.c	-ſon
.	.	2B\	-ste	.	.	2G/	e-
!	!	!LO:LB:g=original	!	!	!	!	!
1C	-ſon	2c\	.	.	.	2A/	.
!	!	!LO:TX:t=P:problem:kreska pseudotaktowa	!	!	!	!	!
.	.	2d\	.	.	.	2B/	.
=28-	=28-	=28-	=28-	=28-	=28-	=28-	=28-
0C	Chry-	2e\	e-	0.ryy	.	2c\	.
.	.	2f\	.	.	.	2d\	.
.	.	2g\	.	.	.	2e\	.
.	.	2a\	.	.	.	4f\	.
.	.	.	.	.	.	4e\	.
1D	-ste	1f	.	.	.	2d\	.
.	.	.	.	.	.	4A/	.
.	.	.	.	.	.	4B/	.
=29-	=29-	=29-	=29-	=29-	=29-	=29-	=29-
2E\	e-	1e	-ley-	0.ryy	.	0c	.
2F\	.	.	.	.	.	.	.
0G	-ley-	0d	.	.	.	.	.
!	!	!	!	!	!	!LO:TX:a:t=P:problem:# above	!
!	!	!	!	!	!	!LO:N:acc=#	!
.	.	.	.	.	.	1Bn	-ley-
=30-	=30-	=30-	=30-	=30-	=30-	=30-	=30-
0.C	-ſon	0.c;<	-ſon	0.ryy	.	0.c;<	-ſon
*	*Xij	*	*	*	*	*	*
=31||	=31||	=31||	=31||	=31||	=31||	=31||	=31||
*M3/1	*	*M3/1	*	*M3/1	*	*M3/1	*
1C	Ky-	1e	Ky-	1c	Ky-	1.g	Ky-
1C	-ri-	1e	-ri-	1c	-ri-	.	.
.	.	.	.	.	.	2g\	-ri-
1C	-e	1e	-e	1c	-e	2g\	-e
.	.	.	.	.	.	2g\	e-
=32-	=32-	=32-	=32-	=32-	=32-	=32-	=32-
0GG	e-	0d	e-	0B	e-	0g	-ley-
1GG	-ley-	1d	-ley-	1B	-ley-	1g	-ſon
!LO:LB:g=original	!	!	!	!	!	!LO:LB:g=original	!
=33-	=33-	=33-	=33-	=33-	=33-	=33-	=33-
0C	.	0e	.	0c	.	0g	e-
1D	.	1d	.	1A	.	1f	-ley-
!	!	!	!	!LO:LB:g=original	!	!	!
=34-	=34-	=34-	=34-	=34-	=34-	=34-	=34-
1GG	-ſon	1d	-ſon	1G	-ſon	0g	-ſon
*	*	*	*	*	*ij	*	*
1.G	Ky-	1d	Ky-	2G/	Ky-	.	.
.	.	.	.	2G/	-ri-	.	.
.	.	1B	-ri-	1G	-e	2d\	Ky-
2G\	-ri-	.	.	.	.	2d\	-ri-
=35-	=35-	=35-	=35-	=35-	=35-	=35-	=35-
0F	-e	0c	-e	0A	e-	0f	-e
1C	e-	1e	e-	1c	-ley-	1e	.
=36-	=36-	=36-	=36-	=36-	=36-	=36-	=36-
0G	-ley-	0d	-ley-	0B	.	0g	.
1A	-ſon	1c	.	1A	.	1e	.
!	!	!LO:LB:g=original	!	!	!	!	!
=37-	=37-	=37-	=37-	=37-	=37-	=37-	=37-
*	*ij	*	*	*	*	*	*
1.E	Ky-	0B	.	0G	-ſon	0e	e-
2E\	-ri-	.	.	.	.	.	.
1F	-e	1A	.	1F	Ky-	1c	-ley-
=38-	=38-	=38-	=38-	=38-	=38-	=38-	=38-
0C	.	0G	-ſon	1E	-ri-	0c	-ſon
.	.	.	.	2E/	-e	.	.
.	.	.	.	2E/	e-	.	.
*	*	*	*	*	*	*	*ij
1C	e-	2G/	Ky-	1E	-ley-	2c/	Ky-
.	.	2G/	-ri-	.	.	2c/	-ri-
=39-	=39-	=39-	=39-	=39-	=39-	=39-	=39-
0C	-ley-	0E	-e	0E	-ſon	0c	-e
1C	.	1G	e-	1E	Ky-	1c	e-
=40-	=40-	=40-	=40-	=40-	=40-	=40-	=40-
*	*	*lig	*	*	*	*	*
0C	-ſon	1A	-ley-	0G	-ri-	0f	-ley-
.	.	1c	.	.	.	.	.
*	*	*Xlig	*	*	*	*	*
1D	e-	1A	.	1F	-e	1d	-ſon
=41-	=41-	=41-	=41-	=41-	=41-	=41-	=41-
*	*	*	*	*lig	*	*	*
0E	-ley-	1c	-ſon	1E	e-	1.c	Ky-
*	*	*	*ij	*	*	*	*
.	.	1.d	Ky-	1.D	-ley-	.	.
.	.	.	.	.	.	2c/	-ri-
1G	.	.	.	.	.	1B	-e
*	*	*	*	*Xlig	*	*	*
.	.	2d\	-ri-	2D/	.	.	.
=42-	=42-	=42-	=42-	=42-	=42-	=42-	=42-
1C	-ſon	1c	-e	1E	-ſon	1c	e-
*	*Xij	*	*	*	*	*	*
2C/	Ky-	1G	Ky-	2E/	Ky-	2c/	-ley-
2C/	-ri-	.	.	2F/	.	2c/	-ſon
1C	-e	1G	-ri-	2G/	-ri-	1c	Ky-
.	.	.	.	2E/	.	.	.
=43-	=43-	=43-	=43-	=43-	=43-	=43-	=43-
1.FF	.	0A	-e	0G	-e	0.c	-ri-
2GG/	.	.	.	.	.	.	.
1AA	.	1A	e-	1F	.	.	.
!	!	!	!	!	!	!LO:LB:g=original	!
=44-	=44-	=44-	=44-	=44-	=44-	=44-	=44-
*	*	*	*	*col	*	*	*
1E	e-	1G	.	1E	e-	1c	-e
*	*	*	*	*Xcol	*	*	*
1F	.	1A	-ley-	0D	-ley-	1c	e-
1G	-ley-	1G	.	.	.	1B	-ley-
!LO:LB:g=original	!	!	!	!LO:LB:g=original	!	!	!
=45-	=45-	=45-	=45-	=45-	=45-	=45-	=45-
0C	-ſon	0G	-ſon	0C	-ſon	0c	-ſon
*	*ij	*	*Xij	*	*Xij	*	*
2C/	e-	1G	e-	1c	e-	1e	e-
2C/	-ley-	.	.	.	.	.	.
=46-	=46-	=46-	=46-	=46-	=46-	=46-	=46-
0FF	.	0G	-ley-	0d	-ley-	0.d	-ley-
1GG	.	1G	.	1d	.	.	.
=47-	=47-	=47-	=47-	=47-	=47-	=47-	=47-
0.C;;	-ſon	0.G;;	-ſon	0.c;;	-ſon	0.e;;l	-ſon
*	*Xij	*	*	*	*	*	*Xij
==	==	==	==	==	==	==	==
*-	*-	*-	*-	*-	*-	*-	*-
!!!system-decoration: [(s1,s2,s3,s4)]
!!!RDF**kern: < = below
!!!RDF**kern: l = terminal long
!!!ENC: Marta Lawrence
!!!END: 2021-07-27
!!!ENC: Anastazja Marusiak
!!!END: 2021-07-05
